X: 68
M:2/4
L:1/16
K:G
((3uDEF)|VGFGB AGED|GGBd g2(fg)|afge dBGB|"4"edBG "4"AGEF|
|:((3def)|vgd"4"ed Bdef|gd"4"ed Bdef|gfed "4"edcB|Ad^cd efga|
gd"4"ed Bdef|gd"4"ed Bdef|gfed bagf|g2b2g2:|


